X:114
M:C|
L:1/8
K:B_
f|c>F F/F/F c>FAf|c>F F/F/F c2 A>d|B>G G/G/G B>G A>d|B>G G/G/G c2 A:|
e/f/g dg e/f/g dg|e/f/g dg e2 d||
|:f|cFdF cFAf|cF F/F/F c2 Ad|BGdG BGAd|BG G/G/G c2A:|
e/f/g/e/ d/e/f/d/|
e/f/g/e/ d/e/f/d/ e2d||

